X: 1
T: The House In The Glen
R: jig
M: 6/8
L: 1/8
K: Dmaj
AFD D2A,|DEF Adc|BGG DGG|B2B BdB|
AFD D2A,|DEF A3|def gfe|fd^c d2B:|
|:ABd fdd|add fdB|Add fed|edB BAF|
Add fdd|add fdd|faf ede|fd^c d2B:|


Tune 2060	Setting 28979

